X:18291
T:Vill ni ko:pa sill
R:schottis
H:Schottis efter min far. I got this schottische from my father.
Z:There are words for the second part:
Z:Hejsan grabbar, vill ni ko:pa sill
Z:Femton o:re valen eller vilket ni vill.
Z:Which means:
Z:Hello, lads, do you want to buy some herring
Z:Fifteen pence a pound, or whatever you want to pay.
M:C|
K:G
GABA G2GA|Bcdc B4|ABcA FDEF|GABG D4|
GABA G2GA|Bcdc B4|ABcA FDEF|1 G2G2 G4:|2 G2G2 GBcd||
|:e2c2 e2e2|dBGB d4|cBAG FDEF|G2GB d4|
e2c2 e2e2|dBGB d4|cBAG FDEF|1 G2G2 GBcd:|2 G2G2 G4||
